fs/text_align_distributed_evenly_24_filled.svg

<svg viewBox="0 0 24 24" fill="none" xmlns="http://www.w3.org/2000/svg" height="1em" width="1em">
  <path d="M2 6C2 5.44772 2.44772 5 3 5H21C21.5523 5 22 5.44772 22 6C22 6.55228 21.5523 7 21 7H3C2.44772 7 2 6.55228 2 6ZM5.70711 15.2929C5.31658 14.9024 4.68342 14.9024 4.29289 15.2929L2.29289 17.2929C1.90237 17.6834 1.90237 18.3166 2.29289 18.7071L4.29289 20.7071C4.68342 21.0976 5.31658 21.0976 5.70711 20.7071C6.09763 20.3166 6.09763 19.6834 5.70711 19.2929L5.41421 19H18.5858L18.2929 19.2929C17.9024 19.6834 17.9024 20.3166 18.2929 20.7071C18.6834 21.0976 19.3166 21.0976 19.7071 20.7071L21.7071 18.7071C22.0976 18.3166 22.0976 17.6834 21.7071 17.2929L19.7071 15.2929C19.3166 14.9024 18.6834 14.9024 18.2929 15.2929C17.9024 15.6834 17.9024 16.3166 18.2929 16.7071L18.5858 17H5.41421L5.70711 16.7071C6.09763 16.3166 6.09763 15.6834 5.70711 15.2929ZM3 11C2.44772 11 2 11.4477 2 12C2 12.5523 2.44772 13 3 13H21C21.5523 13 22 12.5523 22 12C22 11.4477 21.5523 11 21 11H3Z" fill="#212121"/>
</svg>

<svg viewBox="0 0 24 24" fill="none" xmlns="http://www.w3.org/2000/svg" height="1em" width="1em">
  <path d="M2 6a1 1 0 0 1 1-1h18a1 1 0 1 1 0 2H3a1 1 0 0 1-1-1Zm3.707 9.293a1 1 0 0 0-1.414 0l-2 2a1 1 0 0 0 0 1.414l2 2a1 1 0 0 0 1.414-1.414L5.414 19h13.172l-.293.293a1 1 0 0 0 1.414 1.414l2-2a1 1 0 0 0 0-1.414l-2-2a1 1 0 0 0-1.414 1.414l.293.293H5.414l.293-.293a1 1 0 0 0 0-1.414ZM3 11a1 1 0 1 0 0 2h18a1 1 0 1 0 0-2H3Z" fill="#212121"/>
</svg>
